src/assets/icons/plan.svg

<svg width="24" height="24" viewBox="0 0 24 24" fill="none" xmlns="http://www.w3.org/2000/svg">
<path d="M10.4167 9.63889H15.8611M9.63889 12.75H14.3056M11.9722 15.8611H15.8611M7.30556 5.75H18.1944C19.0536 5.75 19.75 6.44645 19.75 7.30556V18.1944C19.75 19.0536 19.0536 19.75 18.1944 19.75H7.30556C6.44645 19.75 5.75 19.0536 5.75 18.1944V7.30556C5.75 6.44645 6.44645 5.75 7.30556 5.75Z" stroke="#314158" stroke-width="1.5" stroke-linecap="round" stroke-linejoin="round"/>
</svg>

<svg fill="none" viewBox="0 0 24 24"><path stroke="currentColor" stroke-linecap="round" stroke-linejoin="round" stroke-width="1.5" d="M10.417 9.639h5.444M9.64 12.75h4.667m-2.334 3.111h3.89M7.305 5.75h10.888c.86 0 1.556.696 1.556 1.556v10.888c0 .86-.696 1.556-1.556 1.556H7.306c-.86 0-1.556-.696-1.556-1.556V7.306c0-.86.696-1.556 1.556-1.556"/></svg>
